!!! OTL: Berkowitz448
!!! Chapter: 1
!!! Section: IV
!!! Page: 111
!!! Mode: 
!!! Encoder: DJB
**kern
*staff1
*I"Piano
=1-
*clefG2
*k[b-e-a-]
*c:
*M2/4
8c/L
8e-/J
8a-/L
8g/J
=2
8f#/L
8ee-/J
8.dd\L
16cc\Jk
=3
8bn\L
8cc\J
8dd/L
8f/J
=4
8en/L
8dd-/J
8.cc\L
16b-\Jk
=5
8a-/L
8f/J
4d-/
=6
8a-/L
8f/J
4c/
=7
8a-/L
8f/J
[4Bn/
=8
8B/L]
8a-/J
4g/
=9
8c/L
8e-/J
8a-/L
8b-/J
=10
8cc\L
8dd\J
4ee-\
=11
8f#/L
8g/J
8.dd\L
16cc\Jk
=12
!!linebreak:original
4cc\
4r
==
*-
